assets/img/Airdrops/noun_Info_809277.svg

<svg width="70" height="70" viewBox="0 0 70 70" fill="none" xmlns="http://www.w3.org/2000/svg">
<path d="M35 0C15.6889 0 0 15.7082 0 35.0124C0 54.3168 15.6889 70 35 70C54.3112 70 70 54.3168 70 35.0124C70 15.7082 54.3112 0 35 0H35ZM35 3.20551C52.5916 3.20551 66.8182 17.4271 66.8182 35.0124C66.8182 52.5978 52.5916 66.7945 35 66.7945C17.4085 66.7945 3.18182 52.5978 3.18182 35.0124C3.18182 17.4271 17.4085 3.20551 35 3.20551H35ZM35 17.5186C34.1214 17.5186 33.4091 18.2306 33.4091 19.1089C33.4091 19.9873 34.1214 20.6993 35 20.6993C35.8787 20.6993 36.5909 19.9873 36.5909 19.1089C36.5909 18.2306 35.8787 17.5186 35 17.5186ZM34.826 25.4455C34.4306 25.489 34.0658 25.6789 33.8035 25.9778C33.5413 26.2768 33.4005 26.6631 33.4091 27.0607V50.9159C33.4061 51.1266 33.4451 51.3359 33.5237 51.5314C33.6023 51.727 33.719 51.905 33.867 52.055C34.015 52.2051 34.1914 52.3243 34.3859 52.4056C34.5804 52.487 34.7892 52.5288 35 52.5288C35.2108 52.5288 35.4196 52.487 35.6141 52.4056C35.8086 52.3243 35.985 52.2051 36.133 52.055C36.281 51.905 36.3977 51.727 36.4763 51.5314C36.5549 51.3359 36.5939 51.1266 36.5909 50.9159V27.0607C36.5958 26.8343 36.5522 26.6095 36.4632 26.4012C36.3742 26.193 36.2417 26.0062 36.0746 25.8533C35.9075 25.7004 35.7097 25.5849 35.4943 25.5146C35.279 25.4443 35.0512 25.4207 34.826 25.4455V25.4455Z" fill="#5e2ced"/>
</svg>

<?xml version="1.0" encoding="utf-8"?>
<!-- Generator: Adobe Illustrator 24.0.1, SVG Export Plug-In . SVG Version: 6.00 Build 0)  -->
<svg version="1.1" id="Слой_1" xmlns="http://www.w3.org/2000/svg" xmlns:xlink="http://www.w3.org/1999/xlink" x="0px" y="0px"
	 viewBox="0 0 70 70" style="enable-background:new 0 0 70 70;" xml:space="preserve">
<style type="text/css">
	.st0{fill:#FFFFFF;}
</style>
<path class="st0" d="M35,0C15.7,0,0,15.7,0,35c0,19.3,15.7,35,35,35c19.3,0,35-15.7,35-35C70,15.7,54.3,0,35,0L35,0z M35,3.2
	c17.6,0,31.8,14.2,31.8,31.8c0,17.6-14.2,31.8-31.8,31.8C17.4,66.8,3.2,52.6,3.2,35C3.2,17.4,17.4,3.2,35,3.2L35,3.2z M35,17.5
	c-0.9,0-1.6,0.7-1.6,1.6c0,0.9,0.7,1.6,1.6,1.6c0.9,0,1.6-0.7,1.6-1.6C36.6,18.2,35.9,17.5,35,17.5z M34.8,25.4
	c-0.4,0-0.8,0.2-1,0.5c-0.3,0.3-0.4,0.7-0.4,1.1v23.9c0,0.2,0,0.4,0.1,0.6c0.1,0.2,0.2,0.4,0.3,0.5c0.1,0.2,0.3,0.3,0.5,0.4
	c0.2,0.1,0.4,0.1,0.6,0.1s0.4,0,0.6-0.1c0.2-0.1,0.4-0.2,0.5-0.4c0.1-0.2,0.3-0.3,0.3-0.5c0.1-0.2,0.1-0.4,0.1-0.6V27.1
	c0-0.2,0-0.5-0.1-0.7c-0.1-0.2-0.2-0.4-0.4-0.5s-0.4-0.3-0.6-0.3C35.3,25.4,35.1,25.4,34.8,25.4L34.8,25.4z"/>
</svg>
